assets/svg/pause.svg

<?xml version="1.0" encoding="UTF-8"?>
<svg width="1000px" height="1000px" viewBox="0 0 1000 1000" version="1.1" xmlns="http://www.w3.org/2000/svg" xmlns:xlink="http://www.w3.org/1999/xlink">
    <!-- Generator: sketchtool 52.4 (67378) - http://www.bohemiancoding.com/sketch -->
    <title>pause</title>
    <desc>Created with sketchtool.</desc>
    <g id="新版图标" stroke="none" stroke-width="1" fill="none" fill-rule="evenodd">
        <g id="pause" fill="#323233">
            <g id="圆角-暂停-线">
                <path d="M376,333.333333 L443.444444,333.333333 C443.996729,333.333333 444.444444,333.781049 444.444444,334.333333 L444.444444,665.666667 C444.444444,666.218951 443.996729,666.666667 443.444444,666.666667 L376,666.666667 C375.447715,666.666667 375,666.218951 375,665.666667 L375,334.333333 C375,333.781049 375.447715,333.333333 376,333.333333 Z M556.555556,333.333333 L624,333.333333 C624.552285,333.333333 625,333.781049 625,334.333333 L625,665.666667 C625,666.218951 624.552285,666.666667 624,666.666667 L556.555556,666.666667 C556.003271,666.666667 555.555556,666.218951 555.555556,665.666667 L555.555556,334.333333 C555.555556,333.781049 556.003271,333.333333 556.555556,333.333333 Z M500,888.888889 C714.777403,888.888889 888.888889,714.777403 888.888889,500 C888.888889,285.222597 714.777403,111.111111 500,111.111111 C285.222597,111.111111 111.111111,285.222597 111.111111,500 C111.111111,714.777403 285.222597,888.888889 500,888.888889 Z M500,944.444444 C254.540111,944.444444 55.5555556,745.459889 55.5555556,500 C55.5555556,254.540111 254.540111,55.5555556 500,55.5555556 C745.459889,55.5555556 944.444444,254.540111 944.444444,500 C944.444444,745.459889 745.459889,944.444444 500,944.444444 Z" id="Combined-Shape"></path>
            </g>
        </g>
    </g>
</svg>

<svg width="1000" height="1000" xmlns="http://www.w3.org/2000/svg"><path d="M376 333.333h67.444a1 1 0 0 1 1 1v331.334a1 1 0 0 1-1 1H376a1 1 0 0 1-1-1V334.333a1 1 0 0 1 1-1zm180.556 0H624a1 1 0 0 1 1 1v331.334a1 1 0 0 1-1 1h-67.444a1 1 0 0 1-1-1V334.333a1 1 0 0 1 1-1zM500 888.89c214.777 0 388.889-174.112 388.889-388.889 0-214.777-174.112-388.889-388.889-388.889-214.777 0-388.889 174.112-388.889 388.889 0 214.777 174.112 388.889 388.889 388.889zm0 55.555C254.54 944.444 55.556 745.46 55.556 500S254.54 55.556 500 55.556 944.444 254.54 944.444 500 745.46 944.444 500 944.444z" fill="#323233" fill-rule="evenodd"/></svg>
